X:2882
L:1/8
Q:1/4=100
M:4/4
K:C
 G>G |"C" c2 c>c"F" c2 B>A |"C" G4 E2 E>E |"G7" F2 F>E D2 E>F |"C" G4 z2 G>G | c2 c>c"F" c2 B>A | 
"C" G4 E2 c>c |"G" B2 G>B"D7" A2 G>^F |"G" G4 z2 || B>c |"G7" d6 c>B |"C" c6 GG | 
"F" A2 A>A"D" A2 d>c |"G" B4 B2"G7" AG |"C" c2 c>c c2 e>c |"F" A6 cc |"C/G" G2 c>e"G7" d2 cB/ | 
"C" c4 z2 |]

